X:434
T:Soft Horse Reel, The
R:reel
C:Phil Cunningham
S:Session Galway 1992
Z:id:hn-reel-434
M:C|
K:D
D2AG FGAF|E2ed cABc|dBBA BdAF|GFED CA,B,C|
D2AG FGAF|E2ed cABc|dBBA BdAF|GFEG FDD2:|
|:BF~F2 Bcdc|BG~G2 BcdB|cA~A2 ~e3c|Aced cAGE|
D2AG FGAF|E2ed cABc|dBBA BdAF|GFEG FDD2:|
P:variations
|:D2AD FEDF|Eeed edBc|dB (3cBA BdAF|GE (3FED B,DA,B,|
D2AD FEDF|Eeed edBc|dB (3cBA BdAF|1 GFEF D4:|2 GFEF D2FA||
|:BF~F2 Bcdc|BG~G2 BcdB|cA~A2 cdeA|^GBed cA=GE|
D2AD FEDF|Eeed edBc|dB (3cBA BdAF|1 GFEF D2FA:|2 GFEF D4||

